X:137
T:Trip to Clumber. VWMLa.137
%%VWML:Anon2-3049-p79-0
F:http://www.vwml.org/record/Anon2/3049/p79
S:Anon. MS, late 18thC, Vaughan Williams Mem. Library
O:England;Yorkshire
Z:vmp/efdss.Simon Wilson. Reviewed PJH 2008.
M:2/4
L:1/8
Q:1/4=120
K:F
c2cf|f2ef|Bb/g/ fe|f/e/f/g/ ff|\
c2cf|f2ef|db/g/ fe|f2f2:|
|:c2Ac|B2GE|FCDE|F/E/F/G/ FF|\
c2Ac|B2GE|FCDE|F2F2:|
|:f3a|g3b|agfe|f/e/f/g/ ff|\
f3a|g3b|agfe|f2F2:|
